packages/core/src/svgs/qrdo.svg

<svg width="24" height="24" viewBox="0 0 24 24" fill="none" xmlns="http://www.w3.org/2000/svg">
<g clip-path="url(#clip0_31_16723)">
<path d="M0 0H24V24H0V0Z" fill="url(#paint0_linear_31_16723)"/>
<path d="M12 7.28587C11.3008 7.28573 10.6104 7.44109 9.9787 7.74071C9.34701 8.04033 8.78987 8.47669 8.34763 9.01821C7.9054 9.55972 7.58915 10.1928 7.42178 10.8716C7.25442 11.5504 7.24013 12.258 7.37996 12.943C7.4081 13.0809 7.40881 13.223 7.38204 13.3611C7.35527 13.4993 7.30155 13.6308 7.22395 13.7482C7.14634 13.8656 7.04638 13.9666 6.92975 14.0454C6.81313 14.1241 6.68214 14.1792 6.54425 14.2073C6.40636 14.2354 6.26428 14.2361 6.12612 14.2094C5.98796 14.1826 5.85642 14.1289 5.73902 14.0513C5.62162 13.9737 5.52066 13.8737 5.44189 13.7571C5.36313 13.6405 5.3081 13.5095 5.27996 13.3716C5.08932 12.4327 5.09753 11.4643 5.30406 10.5288C5.51059 9.5933 5.91085 8.71145 6.47906 7.94011C7.04726 7.16877 7.77079 6.52505 8.60301 6.05045C9.43522 5.57585 10.3576 5.2809 11.3108 5.18462C12.264 5.08834 13.2268 5.19286 14.1371 5.49145C15.0474 5.79003 15.8851 6.27606 16.596 6.91819C17.307 7.56032 17.8756 8.34431 18.265 9.21962C18.6544 10.0949 18.8561 11.0421 18.8571 12.0002H16.7142C16.7142 10.7498 16.2176 9.55075 15.3335 8.66665C14.4494 7.78255 13.2503 7.28587 12 7.28587Z" fill="url(#paint1_linear_31_16723)"/>
<path d="M17.4857 9.86124C17.6241 9.83519 17.7664 9.83672 17.9043 9.86572C18.0421 9.89472 18.1729 9.95062 18.2892 10.0302C18.4054 10.1099 18.5048 10.2116 18.5817 10.3297C18.6585 10.4478 18.7114 10.5799 18.7371 10.7184C18.8169 11.1394 18.8571 11.567 18.8571 11.9955V11.9998C18.8571 13.7484 18.2014 15.3427 17.1257 16.5555L17.5414 17.057C17.6309 17.1656 17.6981 17.2908 17.7392 17.4254C17.7803 17.56 17.7945 17.7013 17.781 17.8414C17.7674 17.9815 17.7265 18.1175 17.6603 18.2418C17.5942 18.366 17.5043 18.476 17.3957 18.5655C17.2871 18.655 17.1619 18.7222 17.0273 18.7633C16.8927 18.8044 16.7513 18.8186 16.6112 18.8051C16.4711 18.7916 16.3351 18.7506 16.2108 18.6845C16.0866 18.6184 15.9766 18.5284 15.8871 18.4198L15.4714 17.9141C14.4297 18.5256 13.2449 18.8511 12.037 18.8576C10.829 18.8641 9.64081 18.5515 8.59255 17.9512C7.54429 17.351 6.6732 16.4845 6.06742 15.4394C5.46164 14.3943 5.14269 13.2078 5.14282 11.9998H7.28568C7.28554 12.8011 7.48963 13.5891 7.87866 14.2896C8.2677 14.99 8.82884 15.5798 9.50912 16.0031C10.1894 16.4265 10.9663 16.6694 11.7666 16.7091C12.5669 16.7488 13.364 16.5838 14.0828 16.2298L13.4571 15.4712C13.3676 15.3626 13.3004 15.2374 13.2593 15.1028C13.2182 14.9682 13.204 14.8269 13.2175 14.6868C13.2449 14.4039 13.3835 14.1434 13.6028 13.9627C13.8222 13.7819 14.1044 13.6958 14.3873 13.7231C14.6702 13.7504 14.9307 13.889 15.1114 14.1084L15.7457 14.8755C16.1525 14.3482 16.4423 13.7403 16.596 13.0922C16.7497 12.4442 16.7637 11.7708 16.6371 11.117C16.5844 10.8379 16.6446 10.5494 16.8046 10.3147C16.9645 10.0801 17.211 9.91852 17.49 9.86552L17.4857 9.86124Z" fill="url(#paint2_linear_31_16723)"/>
<path d="M7.29854 12.36C7.31568 12.5614 7.34139 12.7543 7.37997 12.9429C7.4368 13.2213 7.38068 13.511 7.22395 13.7481C7.06722 13.9852 6.82273 14.1503 6.54425 14.2071C6.26577 14.264 5.97613 14.2079 5.73903 14.0511C5.50193 13.8944 5.3368 13.6499 5.27997 13.3714C5.18996 12.93 5.14282 12.4714 5.14282 12H7.28568" fill="#FFE000"/>
</g>
<defs>
<linearGradient id="paint0_linear_31_16723" x1="4.46571" y1="4.16143" x2="29.2071" y2="32.58" gradientUnits="userSpaceOnUse">
<stop stop-color="#1A1E21"/>
<stop offset="1" stop-color="#06060A"/>
</linearGradient>
<linearGradient id="paint1_linear_31_16723" x1="17.3571" y1="9.42873" x2="6.42853" y2="13.2859" gradientUnits="userSpaceOnUse">
<stop stop-color="#2DDE41"/>
<stop offset="1" stop-color="#FFE000"/>
</linearGradient>
<linearGradient id="paint2_linear_31_16723" x1="22.7143" y1="15.6427" x2="7.71425" y2="15.857" gradientUnits="userSpaceOnUse">
<stop offset="0.36" stop-color="#FF26EB"/>
<stop offset="0.66" stop-color="#137FF9"/>
<stop offset="1" stop-color="#27B3F9"/>
</linearGradient>
<clipPath id="clip0_31_16723">
<rect width="24" height="24" fill="white"/>
</clipPath>
</defs>
</svg>

<svg xmlns="http://www.w3.org/2000/svg" width="24" height="24" fill="none" viewBox="0 0 24 24"><g clip-path="url(#a)"><path fill="url(#b)" d="M0 0h24v24H0z"/><path fill="url(#c)" d="M12 7.286a4.714 4.714 0 0 0-4.62 5.657 1.071 1.071 0 1 1-2.1.429A6.857 6.857 0 1 1 18.857 12h-2.143A4.714 4.714 0 0 0 12 7.286"/><path fill="url(#d)" d="M17.486 9.861a1.07 1.07 0 0 1 1.251.857q.12.633.12 1.277V12a6.84 6.84 0 0 1-1.731 4.555l.415.502a1.071 1.071 0 1 1-1.654 1.363l-.416-.506A6.857 6.857 0 0 1 5.143 12h2.143a4.714 4.714 0 0 0 6.797 4.23l-.626-.759a1.071 1.071 0 1 1 1.654-1.363l.635.768a4.7 4.7 0 0 0 .891-3.759 1.07 1.07 0 0 1 .853-1.251z"/><path fill="#FFE000" d="M7.299 12.36q.024.3.081.583a1.072 1.072 0 1 1-2.1.428q-.136-.663-.137-1.371h2.143"/></g><defs><linearGradient id="b" x1="4.466" x2="29.207" y1="4.161" y2="32.58" gradientUnits="userSpaceOnUse"><stop stop-color="#1A1E21"/><stop offset="1" stop-color="#06060A"/></linearGradient><linearGradient id="c" x1="17.357" x2="6.429" y1="9.429" y2="13.286" gradientUnits="userSpaceOnUse"><stop stop-color="#2DDE41"/><stop offset="1" stop-color="#FFE000"/></linearGradient><linearGradient id="d" x1="22.714" x2="7.714" y1="15.643" y2="15.857" gradientUnits="userSpaceOnUse"><stop offset=".36" stop-color="#FF26EB"/><stop offset=".66" stop-color="#137FF9"/><stop offset="1" stop-color="#27B3F9"/></linearGradient><clipPath id="a"><path fill="#fff" d="M0 0h24v24H0z"/></clipPath></defs></svg>
